X:1
T:Mecklenburger Dreischritt
C:traditionell
R:walzer
A:Deutschland
%%textfont Helvetica-Narrow 10pt
%%begintext align
B:"Das kleine dicke Liederbuch", Heide Buhmann, Hanspeter Haeseler, 5.Auflage, Eigenverlag, Schluechtern 1989
N:im buch ganz in G, einstimmig mit harmonie-buchstaben, Seite 206
%%endtext 
F:http://simonwascher.info 
Z:abc transcription Simon Wascher
M:3/4
L:1/8
K:G
G2 GA Bc | d6 | e2 ec ec | d6 |\
c2 ce dc | Bc dB AG | AB cA FA | G6 :|
|: B2 BG BG | A6 | G2 GB AG | F6 |\
E2 EG FE | DE FG AB | cA FD FA | G6 :|
%%wordsfont Times-Italic 11pt
W:aus Simon Waschers TradArchiv
